X:1
T:Pavane, The Earle of Salisbury'
T:Pavane, The Earle of Salisbury'
T:Byrd arr Kamada
T:Accordo
T:Accordo
C:Byrd arr Kamada
Z:Accordo
%%score 1 2 3
L:1/8
M:4/4
K:C
V:1 treble nm="Flute" snm="Fl."
V:2 treble transpose=-2 nm="B♭ Clarinet" snm="B♭ Cl."
V:3 treble transpose=-2 nm="B♭ Clarinet" snm="B♭ Cl."
V:1
 E2 A4 c2 | B6 E2 | ^F>G A4 ^G2 | A6 z2 | A8 | z fed e4 | z edc d4 | e6 B2 ||"^A" A8 | E8 | A4 B4 | %11
 E3 A E2 A2 | z2 e2 f4 | z fed e4 | c4 z cBA | B6 E2 ||"^B" EC F3 D G2 | G6 G2 | c4 d4 | %19
 e3 d c2 c2 | ^G6 A2 | ^G3 z E4- | E4 E3 D | ^C6 z2 ||"^C" z2 F4 G2 | G8 | c2 A2 d2 B2 | %27
 e3 d c2 e2- | e2 d3 e c2 | B3 A ^GABc | BA A4 ^G2 | !fermata!A8 |] %32
V:2
[K:D] B,3 B, F,2 B,2- | B,2 ^A,^G, A,B,CD | B,4 E4 | F3 B F2 B2 | d4 z dcB | c4 z cBA | B6 B2 | %7
 ^A2 z4 z2 || F2 B4 d2 | c6 F2 | ^G>A B4 ^A2 | B6 B2 | d4 z dcB | c4 A4 | z FED E4 | F3 C F,2 C2 || %16
 D4 E4 | F3 E D2 z2 | z D G3 E A2- | A4 B2 f2- | f2 e3 f d2 | c3 B ^ABcd | cB B4 ^A2 | B6 C2 || %24
 D4 E4 | F3 E D2 F2- | FD G3 E A2- | A4 B2 d2 | ^A6 B2 | ^A2 z2 z4 | EF D2 F3 E | !fermata!^D8 |] %32
V:3
[K:D] B,8 | F8 | E3 D C4 | B,6 z2 | z2 F2 G4 | A,8 | D4 z DCB, | F3 C F,2 F2 || B3 B F2 B2- | %9
 B2 ^A^G ABcd | e3 d c4 | B6 z2 | B,8 | C4 z CB,A, | B,6 B,2 | ^A,6 z2 || B,8 | D8 | B,8 | D4 B,4 | %20
 F8 | z2 F4 E2- | EF D2 C4 | B,6 F2- || FD G3 E A2 | D8 | B,8 | D4 B,4 | F8 | F2 F4 E2 | F6 C2 | %31
 !fermata!B,8 |] %32

